SF_Symbols/star.svg

<?xml version="1.0" encoding="UTF-8"?>
<svg xmlns="http://www.w3.org/2000/svg" xmlns:xlink="http://www.w3.org/1999/xlink" width="24" height="24" viewBox="0 0 24 24" version="1.1">
<g id="surface1">
<path style=" stroke:none;fill-rule:nonzero;fill:rgb(100%,100%,100%);fill-opacity:1;" d="M 4.863281 22.605469 C 5.078125 22.769531 5.324219 22.828125 5.59375 22.769531 C 5.863281 22.722656 6.160156 22.582031 6.480469 22.355469 L 11.988281 18.300781 L 17.511719 22.355469 C 17.828125 22.582031 18.125 22.722656 18.394531 22.769531 C 18.667969 22.828125 18.910156 22.769531 19.125 22.605469 C 19.339844 22.445312 19.46875 22.230469 19.511719 21.957031 C 19.558594 21.6875 19.515625 21.363281 19.386719 20.988281 L 17.207031 14.511719 L 22.769531 10.511719 C 23.097656 10.28125 23.324219 10.046875 23.449219 9.800781 C 23.574219 9.558594 23.59375 9.308594 23.511719 9.050781 C 23.425781 8.800781 23.265625 8.613281 23.019531 8.488281 C 22.777344 8.363281 22.453125 8.304688 22.050781 8.3125 L 15.230469 8.355469 L 13.15625 1.84375 C 13.03125 1.460938 12.871094 1.171875 12.675781 0.980469 C 12.488281 0.785156 12.261719 0.6875 11.988281 0.6875 C 11.726562 0.6875 11.496094 0.785156 11.300781 0.980469 C 11.113281 1.171875 10.957031 1.460938 10.832031 1.84375 L 8.761719 8.355469 L 1.9375 8.3125 C 1.535156 8.304688 1.210938 8.363281 0.96875 8.488281 C 0.726562 8.613281 0.5625 8.800781 0.480469 9.050781 C 0.394531 9.308594 0.417969 9.558594 0.542969 9.800781 C 0.667969 10.046875 0.890625 10.28125 1.21875 10.511719 L 6.78125 14.511719 L 4.605469 20.988281 C 4.472656 21.363281 4.425781 21.6875 4.46875 21.957031 C 4.515625 22.230469 4.648438 22.445312 4.863281 22.605469 Z M 6.363281 20.542969 C 6.351562 20.527344 6.351562 20.496094 6.363281 20.449219 L 8.4375 14.488281 C 8.484375 14.359375 8.507812 14.234375 8.5 14.113281 C 8.5 13.996094 8.46875 13.890625 8.40625 13.792969 C 8.34375 13.6875 8.253906 13.59375 8.136719 13.511719 L 2.949219 9.925781 C 2.898438 9.898438 2.882812 9.871094 2.894531 9.84375 C 2.902344 9.824219 2.933594 9.8125 2.988281 9.8125 L 9.292969 9.925781 C 9.507812 9.933594 9.683594 9.890625 9.824219 9.800781 C 9.960938 9.703125 10.0625 9.546875 10.125 9.332031 L 11.9375 3.300781 C 11.953125 3.246094 11.96875 3.21875 11.988281 3.21875 C 12.015625 3.21875 12.039062 3.246094 12.050781 3.300781 L 13.863281 9.332031 C 13.925781 9.546875 14.027344 9.703125 14.167969 9.800781 C 14.304688 9.890625 14.484375 9.933594 14.699219 9.925781 L 21 9.8125 C 21.054688 9.8125 21.085938 9.824219 21.09375 9.84375 C 21.109375 9.871094 21.089844 9.898438 21.042969 9.925781 L 15.855469 13.511719 C 15.734375 13.59375 15.644531 13.6875 15.582031 13.792969 C 15.519531 13.890625 15.484375 13.996094 15.480469 14.113281 C 15.480469 14.234375 15.503906 14.359375 15.550781 14.488281 L 17.625 20.449219 C 17.632812 20.496094 17.632812 20.527344 17.625 20.542969 C 17.609375 20.5625 17.578125 20.554688 17.53125 20.519531 L 12.519531 16.699219 C 12.355469 16.566406 12.175781 16.5 11.988281 16.5 C 11.808594 16.5 11.636719 16.566406 11.46875 16.699219 L 6.457031 20.519531 C 6.410156 20.554688 6.378906 20.5625 6.363281 20.542969 Z M 6.363281 20.542969 "/>
</g>
</svg>

<svg xmlns="http://www.w3.org/2000/svg" width="24" height="24"><path style="stroke:none;fill-rule:nonzero;fill:#fff;fill-opacity:1" d="M4.863 22.605c.215.165.461.223.73.165.27-.047.567-.188.887-.415l5.508-4.054 5.524 4.054c.316.227.613.368.883.415.273.058.515 0 .73-.165a.974.974 0 0 0 .387-.648c.047-.27.004-.594-.125-.969l-2.18-6.476 5.563-4c.328-.23.554-.465.68-.711a.96.96 0 0 0-.43-1.313c-.243-.125-.567-.183-.97-.175l-6.82.042-2.074-6.511c-.125-.383-.285-.672-.48-.864a.912.912 0 0 0-.688-.292.955.955 0 0 0-.687.292c-.188.192-.344.48-.469.864l-2.07 6.511-6.825-.043c-.402-.007-.726.051-.968.176a.94.94 0 0 0-.489.563.932.932 0 0 0 .063.75c.125.246.348.48.676.71l5.562 4-2.176 6.477c-.132.375-.18.7-.136.969.047.273.18.488.394.648Zm1.5-2.062c-.011-.016-.011-.047 0-.094l2.074-5.96a.936.936 0 0 0 .063-.376.58.58 0 0 0-.094-.32.926.926 0 0 0-.27-.281L2.95 9.926c-.05-.028-.066-.055-.054-.082.007-.02.039-.031.093-.031l6.305.113a.902.902 0 0 0 .531-.125c.137-.098.239-.254.301-.469l1.813-6.031c.015-.055.03-.082.05-.082.028 0 .051.027.063.082l1.812 6.031c.063.215.164.371.305.469.137.09.316.133.531.125L21 9.812c.055 0 .086.012.094.032.015.027-.004.054-.051.082l-5.188 3.586a.939.939 0 0 0-.273.281.621.621 0 0 0-.102.32c0 .121.024.246.07.375l2.075 5.961c.008.047.008.078 0 .094-.016.02-.047.012-.094-.023L12.52 16.7a.85.85 0 0 0-.532-.2.82.82 0 0 0-.52.2l-5.011 3.82c-.047.035-.078.043-.094.023Zm0 0"/></svg>
